src/shared/static/images/photo-cover.svg

<svg width="70" height="70" viewBox="0 0 70 70" fill="none" xmlns="http://www.w3.org/2000/svg">
<circle cx="35" cy="35" r="35" fill="white"/>
<path d="M34.9524 70C15.6305 70.0018 -0.0753237 54.2415 0.000271752 34.9298C0.0776671 15.5786 15.7241 -0.0341429 35.0046 5.60763e-05C54.3588 0.036055 69.944 15.593 69.9998 34.937C70.0574 54.3045 54.3678 70 34.9524 70ZM11.2442 57.5552C24.1494 71.3212 46.1603 71.0656 58.7145 57.5642C58.4499 57.2582 58.198 56.9306 57.9082 56.639C56.6014 55.325 55.0535 54.3369 53.3814 53.5917C51.1964 52.6179 48.9447 51.7917 46.738 50.8666C45.6923 50.4274 44.6466 49.9648 43.6638 49.4032C42.5425 48.7642 41.8153 47.8031 41.7829 46.4315C41.7577 45.3245 41.7217 44.2158 41.6713 43.1088C41.6372 42.3888 41.8333 41.7714 42.2815 41.1936C43.9842 38.9887 44.8716 36.485 44.8878 33.6915C44.8896 33.2523 45.0731 32.9859 45.4043 32.7249C46.1423 32.1399 46.7974 31.4505 46.9954 30.4984C47.2078 29.476 47.359 28.4356 47.4562 27.3935C47.5354 26.5457 47.4436 25.7177 46.3655 25.6295C46.5167 24.3497 46.7164 23.1672 46.7866 21.9792C46.927 19.5529 46.6642 17.1824 45.4421 15.0152C44.3892 13.1487 42.8017 12.1245 40.631 12.0417C40.343 12.0309 40.0479 11.9427 39.7725 11.8473C37.0222 10.9023 34.182 10.6125 31.3508 11.1777C25.8395 12.2757 22.5421 17.0132 23.2045 22.6524C23.3197 23.6262 23.505 24.5909 23.6688 25.6349C22.9129 25.6745 22.4683 26.1101 22.4827 26.8301C22.5223 28.9702 22.5619 31.1337 24.4554 32.6439C24.9288 33.0219 25.0494 33.4971 25.098 34.0551C25.1663 34.856 25.2581 35.6588 25.3859 36.4526C25.6847 38.3173 26.7719 39.8059 27.7474 41.352C27.9886 41.7354 28.1848 42.2178 28.2028 42.6624C28.2514 43.8882 28.2028 45.1175 28.1758 46.3451C28.1488 47.5763 27.5836 48.5266 26.5775 49.2088C26.1077 49.5274 25.6271 49.8496 25.1088 50.0692C23.8704 50.5966 22.6123 51.0826 21.3524 51.5559C18.7425 52.5387 16.1579 53.5719 13.8378 55.1594C12.8659 55.8236 11.9677 56.5634 11.2442 57.5552Z" fill="#D0CFCF"/>
</svg>

<svg width="70" height="70" fill="none" xmlns="http://www.w3.org/2000/svg"><circle cx="35" cy="35" r="35" fill="#fff"/><path d="M34.952 70C15.63 70.002-.075 54.242 0 34.93.078 15.579 15.724-.034 35.005 0 54.359.036 69.944 15.593 70 34.937 70.057 54.304 54.368 70 34.952 70ZM11.244 57.555c12.905 13.766 34.916 13.51 47.47.01-.264-.307-.516-.634-.806-.926-1.307-1.314-2.855-2.302-4.527-3.047-2.185-.974-4.436-1.8-6.643-2.725-1.046-.44-2.091-.902-3.074-1.464-1.122-.639-1.849-1.6-1.881-2.971a146.288 146.288 0 0 0-.112-3.323 2.773 2.773 0 0 1 .61-1.915c1.703-2.205 2.59-4.709 2.607-7.503.002-.439.185-.705.516-.966.738-.585 1.393-1.274 1.591-2.227a28.13 28.13 0 0 0 .461-3.105c.08-.847-.012-1.675-1.09-1.764.15-1.28.35-2.462.42-3.65.141-2.426-.122-4.797-1.344-6.964-1.053-1.866-2.64-2.89-4.811-2.973-.288-.011-.583-.1-.858-.195-2.75-.945-5.591-1.234-8.422-.67-5.511 1.099-8.809 5.836-8.146 11.475.115.974.3 1.939.464 2.983-.756.04-1.2.475-1.186 1.195.04 2.14.079 4.304 1.972 5.814.474.378.594.853.643 1.411.068.801.16 1.604.288 2.398.299 1.864 1.386 3.353 2.361 4.899.242.383.438.866.456 1.31.048 1.226 0 2.456-.027 3.683-.027 1.231-.592 2.182-1.598 2.864-.47.318-.95.64-1.47.86a93.461 93.461 0 0 1-3.756 1.487c-2.61.983-5.194 2.016-7.514 3.603-.972.665-1.87 1.404-2.594 2.396Z" fill="#D0CFCF"/></svg>
